src/images/icon-char-5.v3.svg

<svg width="49" height="48" viewBox="0 0 49 48" fill="none" xmlns="http://www.w3.org/2000/svg">
<g clip-path="url(#clip0)">
<path d="M8.88391 9.66784H6.31592V8.69617H8.88391V9.66784Z" fill="#999999"/>
<path d="M8.88391 18.0658H6.31592V17.1636H8.88391V18.0658Z" fill="#999999"/>
<path d="M8.88391 26.5333H6.31592V25.5616H8.88391V26.5333Z" fill="#999999"/>
<path d="M8.88391 34.8619H6.31592V33.8903H8.88391V34.8619Z" fill="#999999"/>
<path d="M4.71955 1.06164C3.67847 1.06164 2.7068 1.47807 2.08215 2.17212C1.3881 2.79676 0.971671 3.76844 0.971671 4.80951V39.8591C0.971671 40.6225 1.17989 41.3166 1.52691 41.8718C1.87394 42.4965 2.42918 42.9129 3.05382 43.2599L3.33144 43.3293V45.5503C3.33144 45.9667 3.47026 46.3138 3.74788 46.522C4.0255 46.7996 4.37252 47.0078 4.71955 47.0078C5.13598 47.0078 5.483 46.7996 5.76062 46.522C5.96884 46.3138 6.17705 45.9667 6.17705 45.5503V43.3293L6.45467 43.2599C7.07932 42.9129 7.56516 42.4965 7.98159 41.8718C8.32861 41.3166 8.53683 40.6225 8.53683 39.8591V39.0956H3.81728V38.1934H8.53683V30.6976H3.81728V29.7259H8.53683V22.369H3.81728V21.3973H8.53683V14.0404H3.81728V13.0687H8.53683V5.71178H3.81728V4.74011H8.53683C8.46742 3.69903 7.98159 2.79676 7.35694 2.17212C6.66289 1.47807 5.76062 1.06164 4.71955 1.06164ZM1.3881 1.47807C2.22096 0.645207 3.40085 0.0899658 4.71955 0.0899658C6.03824 0.0899658 7.14873 0.645207 8.05099 1.47807C8.88385 2.31093 9.43909 3.49082 9.43909 4.80951V39.8591C9.43909 40.8308 9.23088 41.6636 8.74504 42.3577C8.32861 43.0517 7.77337 43.5376 7.07932 43.954V45.5503C7.07932 46.175 6.8711 46.7996 6.38527 47.216C5.96884 47.6325 5.4136 47.9101 4.71955 47.9101C4.0949 47.9101 3.47025 47.6325 3.05382 47.216C2.63739 46.7996 2.35977 46.175 2.35977 45.5503V43.954C1.66572 43.5376 1.11048 43.0517 0.694051 42.3577C0.27762 41.6636 0 40.8308 0 39.8591V4.80951C0 3.49082 0.555241 2.31093 1.3881 1.47807Z" fill="#003067"/>
<path d="M11.1743 4.74011H17.3514V5.71178H11.1743V4.74011Z" fill="#999999"/>
<path d="M11.1743 38.1934H17.3514V39.0956H11.1743V38.1934Z" fill="#999999"/>
<path fill-rule="evenodd" clip-rule="evenodd" d="M25.2637 5.36478H27.6234V3.005H29.428V5.36478H31.8572V7.09991H29.428V9.45968H27.6234V7.0305H25.2637V5.36478Z" fill="#003067"/>
<path fill-rule="evenodd" clip-rule="evenodd" d="M39.4224 2.93557H36.0909L35.7439 4.53188C35.8827 4.53188 36.0909 4.46248 36.3685 4.46248C37.4096 4.46248 38.3813 4.8095 38.9365 5.50356C39.7 6.33642 39.7694 7.30809 39.7694 7.86333C39.7694 8.90441 39.4918 9.73727 38.7283 10.5007C37.9649 11.2642 37.0626 11.5418 36.0215 11.5418C35.3969 11.5418 34.564 11.5418 33.8006 11.1948C33.4535 10.9866 32.9677 10.7089 32.5513 10.2925L33.2453 8.62679C33.5229 8.97381 33.8006 9.25143 34.2864 9.52905C34.7722 9.87608 35.2581 9.94548 35.7439 9.94548C36.5768 9.94548 37.0626 9.52905 37.2014 9.39024C37.6178 8.90441 37.8955 8.41857 37.8955 7.79392C37.8955 7.16928 37.6872 6.75285 37.3402 6.33642C36.8544 5.85058 36.2991 5.85058 35.7439 5.85058C35.0499 5.85058 34.2864 6.0588 33.5229 6.54463L34.7722 1.20044H39.4224V2.93557Z" fill="#003067"/>
<path fill-rule="evenodd" clip-rule="evenodd" d="M41.2271 6.26703C41.2271 2.86618 43.101 1.06165 45.1137 1.06165C47.0571 1.06165 49.0004 2.86618 49.0004 6.26703C49.0004 9.66788 47.0571 11.4724 45.1137 11.4724C43.101 11.5418 41.2271 9.73728 41.2271 6.26703ZM43.1704 6.26703C43.1704 8.90442 44.2115 9.87609 45.1137 9.87609C45.9466 9.87609 46.9877 8.90442 46.9877 6.26703C46.9877 3.69904 45.9466 2.72737 45.1137 2.72737C44.2115 2.72737 43.1704 3.69904 43.1704 6.26703Z" fill="#003067"/>
<path fill-rule="evenodd" clip-rule="evenodd" d="M34.0781 37.2217H36.4379V34.8619H38.2424V37.2217H40.6022V38.9568H38.2424V41.3166H36.4379V38.9568H34.0781V37.2217Z" fill="#003067"/>
<path fill-rule="evenodd" clip-rule="evenodd" d="M44.4887 34.862H43.1006V33.1268H46.5014V43.1906H44.4887V34.862Z" fill="#003067"/>
</g>
<defs>
<clipPath id="clip0">
<rect width="49" height="48" fill="white"/>
</clipPath>
</defs>
</svg>

<svg xmlns="http://www.w3.org/2000/svg" width="49" height="48" fill="none" viewBox="0 0 49 48">
	<g clip-path="url(#icon-char-5.v3-a)">
		<path fill="#999" d="M8.884 9.668H6.316v-.972h2.568v.972zM8.884 18.066H6.316v-.902h2.568v.902zM8.884 26.533H6.316v-.971h2.568v.971zM8.884 34.862H6.316v-.972h2.568v.972z"/>
		<path fill="#003067" d="M4.72 1.062c-1.042 0-2.013.416-2.638 1.11-.694.625-1.11 1.596-1.11 2.638v35.05c0 .763.208 1.457.555 2.012.347.624.902 1.04 1.527 1.388l.277.07v2.22c0 .417.14.764.417.972.277.278.625.486.972.486.416 0 .763-.208 1.04-.486.209-.208.417-.555.417-.972v-2.22l.278-.07c.624-.347 1.11-.764 1.527-1.388.347-.555.555-1.25.555-2.013v-.763h-4.72v-.903h4.72v-7.495h-4.72v-.972h4.72v-7.357h-4.72v-.972h4.72V14.04h-4.72v-.971h4.72V5.712h-4.72V4.74h4.72a4.046 4.046 0 0 0-1.18-2.568c-.694-.694-1.596-1.11-2.637-1.11zm-3.332.416A4.72 4.72 0 0 1 4.72.09c1.318 0 2.429.555 3.331 1.388A4.72 4.72 0 0 1 9.439 4.81v35.05c0 .97-.208 1.804-.694 2.498-.416.694-.972 1.18-1.666 1.596v1.596c0 .625-.208 1.25-.694 1.666a2.299 2.299 0 0 1-1.665.694c-.625 0-1.25-.277-1.666-.694a2.423 2.423 0 0 1-.694-1.666v-1.596c-.694-.416-1.25-.902-1.666-1.596A4.794 4.794 0 0 1 0 39.859V4.81a4.72 4.72 0 0 1 1.388-3.33z"/>
		<path fill="#999" d="M11.174 4.74h6.177v.972h-6.177V4.74zM11.174 38.193h6.177v.903h-6.177v-.903z"/>
		<path fill="#003067" fill-rule="evenodd" d="M25.264 5.365h2.36v-2.36h1.804v2.36h2.43V7.1h-2.43v2.36h-1.805V7.03h-2.36V5.365zM39.422 2.936h-3.331l-.347 1.596c.139 0 .347-.07.624-.07 1.042 0 2.013.348 2.569 1.042.763.832.832 1.804.832 2.36 0 1.04-.277 1.873-1.04 2.637-.764.763-1.666 1.04-2.707 1.04-.625 0-1.458 0-2.221-.346-.348-.208-.833-.486-1.25-.902l.694-1.666c.278.347.556.624 1.041.902.486.347.972.416 1.458.416.833 0 1.319-.416 1.457-.555.417-.486.694-.971.694-1.596 0-.625-.208-1.041-.555-1.458-.486-.485-1.04-.485-1.596-.485-.694 0-1.458.208-2.221.694l1.25-5.345h4.65v1.736zM41.227 6.267c0-3.4 1.874-5.205 3.887-5.205C47.057 1.062 49 2.866 49 6.267c0 3.4-1.943 5.205-3.886 5.205-2.013.07-3.887-1.735-3.887-5.205zm1.943 0c0 2.637 1.041 3.61 1.944 3.61.833 0 1.874-.973 1.874-3.61 0-2.568-1.041-3.54-1.874-3.54-.902 0-1.944.972-1.944 3.54zM34.078 37.222h2.36v-2.36h1.804v2.36h2.36v1.735h-2.36v2.36h-1.804v-2.36h-2.36v-1.735zM44.489 34.862H43.1v-1.735h3.4V43.19H44.49v-8.329z" clip-rule="evenodd"/>
	</g>
	<defs>
		<clipPath id="icon-char-5.v3-a">
			<path fill="#fff" d="M0 0h49v48H0z"/>
		</clipPath>
	</defs>
</svg>
